svg/300/sharp/input-fill.svg

<svg xmlns="http://www.w3.org/2000/svg" width="48" height="48" viewBox="0 -960 960 960"><path d="M100.001-180.001v-195.921h45.384v150.537h669.23v-509.23h-669.23v151.768h-45.384v-197.152h759.998v599.998H100.001Zm367.077-143.77-32.615-32.23L534.77-456.693H100.001v-45.383H534.77L434.463-602.384l32.615-32.615 155.613 155.614-155.613 155.614Z"/></svg>

<svg xmlns="http://www.w3.org/2000/svg" width="48" height="48" viewBox="0 -960 960 960"><path d="M100-180v-195.92h45.39v150.53h669.22v-509.22H145.39v151.76H100V-780h760v600H100Zm367.08-143.77L434.46-356l100.31-100.69H100v-45.39h434.77l-100.31-100.3L467.08-635l155.61 155.62-155.61 155.61Z"/></svg>
